packages/scratch-gui/src/components/debug-modal/icons/icon--read-aloud.svg

<svg width="439" height="106" viewBox="0 0 439 106" fill="none" xmlns="http://www.w3.org/2000/svg">
<g clip-path="url(#clip0_1997_8798)">
<path d="M438.83 0H0V105.89H438.83V0Z" fill="white"/>
<path opacity="0.7" fill-rule="evenodd" clip-rule="evenodd" d="M327.62 87.9601C327.58 88.0201 327.53 88.0801 327.49 88.1501C315.93 105.28 298.61 108.99 300.24 101.22C301.39 95.7401 302.31 90.8901 301.31 87.9601H296.45C285.07 87.9601 275.85 78.7501 275.85 67.4001C275.85 56.0501 285.07 46.8401 296.45 46.8401H394.21C405.59 46.8401 414.81 56.0401 414.81 67.4001C414.81 78.7601 405.59 87.9601 394.21 87.9601H327.61H327.62Z" fill="#7E69AD"/>
<path opacity="0.7" fill-rule="evenodd" clip-rule="evenodd" d="M123.28 48.62C122.29 51.55 123.21 56.4 124.35 61.88C125.98 69.65 108.66 65.94 97.1 48.81C97.06 48.75 97.01 48.68 96.97 48.62H30.37C18.99 48.62 9.77002 39.42 9.77002 28.06C9.77002 16.7 19 7.5 30.37 7.5H128.13C139.51 7.5 148.73 16.7 148.73 28.06C148.73 39.42 139.51 48.62 128.13 48.62H123.27H123.28Z" fill="#23B689"/>
<path fill-rule="evenodd" clip-rule="evenodd" d="M189.85 18.22C190.35 17.57 191.08 17.15 191.89 17.04L193.68 16.8L279.17 5.34999C280.86 5.11999 282.41 6.30999 282.63 7.98999L286.72 38.52C286.95 40.21 285.76 41.76 284.08 41.98L198.59 53.43L196.8 53.67C195.99 53.78 195.26 54.2 194.76 54.85L191.02 59.75C190.52 60.4 189.79 60.82 188.98 60.93L179.3 62.23C178.49 62.34 177.67 62.12 177.02 61.62L172.12 57.88C171.47 57.38 170.65 57.17 169.84 57.28L168.05 57.52L161.94 58.34C160.25 58.57 158.7 57.38 158.48 55.7L154.39 25.17C154.16 23.48 155.35 21.93 157.03 21.71L163.14 20.89L164.93 20.65C165.74 20.54 166.56 20.76 167.21 21.26L172.11 25C172.76 25.5 173.58 25.71 174.39 25.61L184.07 24.31C184.88 24.2 185.61 23.78 186.11 23.13L189.85 18.23V18.22Z" fill="#23B689"/>
<path fill-rule="evenodd" clip-rule="evenodd" d="M195.32 58.34C195.81 57.69 196.55 57.26 197.36 57.15L199.15 56.9L247.98 50.2C249.66 49.97 251.22 51.15 251.45 52.83L255.64 83.35C255.87 85.04 254.69 86.59 253.01 86.82L204.18 93.52L202.39 93.76C201.58 93.87 200.85 94.3 200.35 94.95L196.63 99.86C196.14 100.51 195.4 100.94 194.59 101.05L184.91 102.38C184.1 102.49 183.28 102.28 182.63 101.78L177.72 98.06C177.07 97.57 176.25 97.35 175.44 97.46L173.65 97.71L167.55 98.55C165.86 98.78 164.31 97.6 164.08 95.92L159.89 65.4C159.66 63.71 160.84 62.16 162.52 61.93L168.62 61.09L170.41 60.85C171.22 60.74 172.04 60.95 172.69 61.45L177.6 65.17C178.25 65.66 179.07 65.88 179.88 65.77L189.56 64.44C190.37 64.33 191.1 63.9 191.6 63.25L195.32 58.34Z" fill="#7E69AD"/>
<path fill-rule="evenodd" clip-rule="evenodd" d="M12.24 27.1001C19.36 27.1001 19.36 19.2401 21.14 19.2401C22.92 19.2401 22.93 23.9501 24.71 23.9501C26.49 23.9501 26.49 11.3801 28.27 11.3801C30.05 11.3801 30.05 20.8001 31.83 20.8001C33.61 20.8001 33.61 14.5201 35.4 14.5201C37.19 14.5201 37.18 23.9501 40.74 23.9501C42.52 23.9501 42.52 20.8001 44.3 20.8001C44.72 20.8001 45.04 21.1501 45.36 21.6801C46.85 24.1901 50.58 23.8301 51.45 21.0501C51.99 19.3301 52.39 17.9001 53.03 17.9001C54.68 17.9001 54.68 22.4901 56.33 22.4901C59.63 22.4901 59.63 8.70011 61.28 8.70011C62.93 8.70011 62.93 17.9001 64.58 17.9001C66.23 17.9001 66.23 4.11011 67.88 4.11011C69.53 4.11011 69.53 22.4901 71.18 22.4901C72.83 22.4901 72.83 15.6001 74.48 15.6001C76.13 15.6001 76.13 27.0901 82.74 27.0901C76.13 27.0901 76.13 38.5801 74.48 38.5801C72.83 38.5801 72.83 31.6901 71.18 31.6901C69.53 31.6901 69.53 50.0701 67.88 50.0701C66.23 50.0701 66.23 36.2801 64.58 36.2801C62.93 36.2801 62.93 45.4701 61.28 45.4701C59.63 45.4701 59.63 31.6901 56.33 31.6901C54.68 31.6901 54.68 36.2801 53.03 36.2801C52.38 36.2801 51.99 34.8601 51.45 33.1301C50.58 30.3501 46.85 29.9901 45.36 32.4901C45.05 33.0201 44.72 33.3701 44.3 33.3701C42.52 33.3701 42.52 30.2301 40.74 30.2301C37.18 30.2301 37.18 39.6601 35.4 39.6601C33.62 39.6601 33.61 33.3701 31.83 33.3701C30.05 33.3701 30.05 42.8001 28.27 42.8001C26.49 42.8001 26.49 30.2301 24.71 30.2301C22.93 30.2301 22.93 34.9401 21.14 34.9401C19.35 34.9401 19.36 27.0801 12.24 27.0801V27.1001Z" fill="#078E69"/>
<path fill-rule="evenodd" clip-rule="evenodd" d="M74.3601 27.1001C81.4801 27.1001 81.4801 19.2401 83.2601 19.2401C85.0401 19.2401 85.0501 23.9501 86.8301 23.9501C88.6101 23.9501 88.6101 11.3801 90.3901 11.3801C92.1701 11.3801 92.1701 20.8001 93.9501 20.8001C95.7301 20.8001 95.7301 14.5201 97.5201 14.5201C99.3101 14.5201 99.3001 23.9501 102.86 23.9501C104.64 23.9501 104.64 20.8001 106.42 20.8001C106.84 20.8001 107.16 21.1501 107.48 21.6801C108.97 24.1901 112.7 23.8301 113.57 21.0501C114.11 19.3301 114.51 17.9001 115.15 17.9001C116.8 17.9001 116.8 22.4901 118.45 22.4901C121.75 22.4901 121.75 8.70011 123.4 8.70011C125.05 8.70011 125.05 17.9001 126.7 17.9001C128.35 17.9001 128.35 4.11011 130 4.11011C131.65 4.11011 131.65 22.4901 133.3 22.4901C134.95 22.4901 134.95 15.6001 136.6 15.6001C138.25 15.6001 138.25 27.0901 144.86 27.0901C138.25 27.0901 138.25 38.5801 136.6 38.5801C134.95 38.5801 134.95 31.6901 133.3 31.6901C131.65 31.6901 131.65 50.0701 130 50.0701C128.35 50.0701 128.35 36.2801 126.7 36.2801C125.05 36.2801 125.05 45.4701 123.4 45.4701C121.75 45.4701 121.75 31.6901 118.45 31.6901C116.8 31.6901 116.8 36.2801 115.15 36.2801C114.5 36.2801 114.11 34.8601 113.57 33.1301C112.7 30.3501 108.97 29.9901 107.48 32.4901C107.17 33.0201 106.84 33.3701 106.42 33.3701C104.64 33.3701 104.64 30.2301 102.86 30.2301C99.3001 30.2301 99.3001 39.6601 97.5201 39.6601C95.7401 39.6601 95.7301 33.3701 93.9501 33.3701C92.1701 33.3701 92.1701 42.8001 90.3901 42.8001C88.6101 42.8001 88.6101 30.2301 86.8301 30.2301C85.0501 30.2301 85.0501 34.9401 83.2601 34.9401C81.4701 34.9401 81.4801 27.0801 74.3601 27.0801V27.1001Z" fill="#078E69"/>
<path fill-rule="evenodd" clip-rule="evenodd" d="M407.25 67.7202C400.41 67.7202 400.41 75.2702 398.7 75.2702C396.99 75.2702 396.98 70.7402 395.27 70.7402C393.56 70.7402 393.56 82.8202 391.85 82.8202C390.14 82.8202 390.14 73.7702 388.43 73.7702C386.72 73.7702 386.72 79.8102 385 79.8102C383.28 79.8102 383.29 70.7502 379.87 70.7502C378.16 70.7502 378.16 73.7702 376.45 73.7702C376.05 73.7702 375.74 73.4402 375.44 72.9302C374.01 70.5202 370.43 70.8602 369.59 73.5402C369.07 75.2002 368.69 76.5602 368.07 76.5602C366.48 76.5602 366.48 72.1502 364.9 72.1502C361.73 72.1502 361.73 85.4002 360.14 85.4002C358.55 85.4002 358.55 76.5702 356.97 76.5702C355.39 76.5702 355.38 89.8202 353.8 89.8202C352.22 89.8202 352.21 72.1602 350.63 72.1602C349.05 72.1602 349.04 78.7802 347.46 78.7802C345.88 78.7802 345.87 67.7402 339.53 67.7402C345.88 67.7402 345.88 56.7002 347.46 56.7002C349.04 56.7002 349.04 63.3202 350.63 63.3202C352.22 63.3202 352.22 45.6602 353.8 45.6602C355.38 45.6602 355.39 58.9102 356.97 58.9102C358.55 58.9102 358.56 50.0802 360.14 50.0802C361.72 50.0802 361.73 63.3202 364.9 63.3202C366.48 63.3202 366.48 58.9102 368.07 58.9102C368.69 58.9102 369.07 60.2802 369.59 61.9402C370.43 64.6102 374.01 64.9602 375.44 62.5502C375.74 62.0402 376.05 61.7102 376.45 61.7102C378.16 61.7102 378.16 64.7302 379.87 64.7302C383.29 64.7302 383.29 55.6702 385 55.6702C386.71 55.6702 386.72 61.7102 388.43 61.7102C390.14 61.7102 390.14 52.6502 391.85 52.6502C393.56 52.6502 393.56 64.7302 395.27 64.7302C396.98 64.7302 396.98 60.2002 398.7 60.2002C400.42 60.2002 400.41 67.7502 407.25 67.7502V67.7202Z" fill="#6F57A4"/>
<path fill-rule="evenodd" clip-rule="evenodd" d="M351.91 67.7202C345.07 67.7202 345.07 75.2702 343.36 75.2702C341.65 75.2702 341.64 70.7402 339.93 70.7402C338.22 70.7402 338.22 82.8202 336.51 82.8202C334.8 82.8202 334.8 73.7702 333.09 73.7702C331.38 73.7702 331.38 79.8102 329.66 79.8102C327.94 79.8102 327.95 70.7502 324.53 70.7502C322.82 70.7502 322.82 73.7702 321.11 73.7702C320.71 73.7702 320.4 73.4402 320.1 72.9302C318.67 70.5202 315.09 70.8602 314.25 73.5402C313.73 75.2002 313.35 76.5602 312.73 76.5602C311.14 76.5602 311.14 72.1502 309.56 72.1502C306.39 72.1502 306.39 85.4002 304.8 85.4002C303.21 85.4002 303.21 76.5702 301.63 76.5702C300.05 76.5702 300.04 89.8202 298.46 89.8202C296.88 89.8202 296.87 72.1602 295.29 72.1602C293.71 72.1602 293.7 78.7802 292.12 78.7802C290.54 78.7802 290.53 67.7402 284.19 67.7402C290.54 67.7402 290.54 56.7002 292.12 56.7002C293.7 56.7002 293.7 63.3202 295.29 63.3202C296.88 63.3202 296.88 45.6602 298.46 45.6602C300.04 45.6602 300.05 58.9102 301.63 58.9102C303.21 58.9102 303.22 50.0802 304.8 50.0802C306.38 50.0802 306.39 63.3202 309.56 63.3202C311.14 63.3202 311.14 58.9102 312.73 58.9102C313.35 58.9102 313.73 60.2802 314.25 61.9402C315.09 64.6102 318.67 64.9602 320.1 62.5502C320.4 62.0402 320.71 61.7102 321.11 61.7102C322.82 61.7102 322.82 64.7302 324.53 64.7302C327.95 64.7302 327.95 55.6702 329.66 55.6702C331.37 55.6702 331.38 61.7102 333.09 61.7102C334.8 61.7102 334.8 52.6502 336.51 52.6502C338.22 52.6502 338.22 64.7302 339.93 64.7302C341.64 64.7302 341.64 60.2002 343.36 60.2002C345.08 60.2002 345.07 67.7502 351.91 67.7502V67.7202Z" fill="#6F57A4"/>
</g>
<defs>
<clipPath id="clip0_1997_8798">
<rect width="438.83" height="105.89" fill="white"/>
</clipPath>
</defs>
</svg>

<?xml version="1.0" encoding="UTF-8"?><svg width="440" height="106" id="Layer_2" xmlns="http://www.w3.org/2000/svg" viewBox="0 0 438.83 105.89"><g id="Layer_1-2"><g><rect width="438.83" height="105.89" fill="#fff"/><g><path d="M327.62,87.96c-.04,.06-.09,.12-.13,.19-11.56,17.13-28.88,20.84-27.25,13.07,1.15-5.48,2.07-10.33,1.07-13.26h-4.86c-11.38,0-20.6-9.21-20.6-20.56s9.22-20.56,20.6-20.56h97.76c11.38,0,20.6,9.2,20.6,20.56s-9.22,20.56-20.6,20.56h-66.6Z" fill="#7e69ad" fill-rule="evenodd" opacity=".7"/><path d="M123.28,48.62c-.99,2.93-.07,7.78,1.07,13.26,1.63,7.77-15.69,4.06-27.25-13.07-.04-.06-.09-.13-.13-.19H30.37c-11.38,0-20.6-9.2-20.6-20.56S19,7.5,30.37,7.5h97.76c11.38,0,20.6,9.2,20.6,20.56s-9.22,20.56-20.6,20.56h-4.86Z" fill="#23b689" fill-rule="evenodd" opacity=".7"/><path d="M189.85,18.22c.5-.65,1.23-1.07,2.04-1.18l1.79-.24,85.49-11.45c1.69-.23,3.24,.96,3.46,2.64l4.09,30.53c.23,1.69-.96,3.24-2.64,3.46l-85.49,11.45-1.79,.24c-.81,.11-1.54,.53-2.04,1.18l-3.74,4.9c-.5,.65-1.23,1.07-2.04,1.18l-9.68,1.3c-.81,.11-1.63-.11-2.28-.61l-4.9-3.74c-.65-.5-1.47-.71-2.28-.6l-1.79,.24-6.11,.82c-1.69,.23-3.24-.96-3.46-2.64l-4.09-30.53c-.23-1.69,.96-3.24,2.64-3.46l6.11-.82,1.79-.24c.81-.11,1.63,.11,2.28,.61l4.9,3.74c.65,.5,1.47,.71,2.28,.61l9.68-1.3c.81-.11,1.54-.53,2.04-1.18l3.74-4.9Z" fill="#23b689" fill-rule="evenodd"/><path d="M195.32,58.34c.49-.65,1.23-1.08,2.04-1.19l1.79-.25,48.83-6.7c1.68-.23,3.24,.95,3.47,2.63l4.19,30.52c.23,1.69-.95,3.24-2.63,3.47l-48.83,6.7-1.79,.24c-.81,.11-1.54,.54-2.04,1.19l-3.72,4.91c-.49,.65-1.23,1.08-2.04,1.19l-9.68,1.33c-.81,.11-1.63-.1-2.28-.6l-4.91-3.72c-.65-.49-1.47-.71-2.28-.6l-1.79,.25-6.1,.84c-1.69,.23-3.24-.95-3.47-2.63l-4.19-30.52c-.23-1.69,.95-3.24,2.63-3.47l6.1-.84,1.79-.24c.81-.11,1.63,.1,2.28,.6l4.91,3.72c.65,.49,1.47,.71,2.28,.6l9.68-1.33c.81-.11,1.54-.54,2.04-1.19l3.72-4.91Z" fill="#7e69ad" fill-rule="evenodd"/><path d="M12.24,27.1c7.12,0,7.12-7.86,8.9-7.86s1.79,4.71,3.57,4.71,1.78-12.57,3.56-12.57,1.78,9.42,3.56,9.42,1.78-6.28,3.57-6.28,1.78,9.43,5.34,9.43c1.78,0,1.78-3.15,3.56-3.15,.42,0,.74,.35,1.06,.88,1.49,2.51,5.22,2.15,6.09-.63,.54-1.72,.94-3.15,1.58-3.15,1.65,0,1.65,4.59,3.3,4.59,3.3,0,3.3-13.79,4.95-13.79s1.65,9.2,3.3,9.2,1.65-13.79,3.3-13.79,1.65,18.38,3.3,18.38,1.65-6.89,3.3-6.89,1.65,11.49,8.26,11.49c-6.61,0-6.61,11.49-8.26,11.49s-1.65-6.89-3.3-6.89-1.65,18.38-3.3,18.38-1.65-13.79-3.3-13.79-1.65,9.19-3.3,9.19-1.65-13.78-4.95-13.78c-1.65,0-1.65,4.59-3.3,4.59-.65,0-1.04-1.42-1.58-3.15-.87-2.78-4.6-3.14-6.09-.64-.31,.53-.64,.88-1.06,.88-1.78,0-1.78-3.14-3.56-3.14-3.56,0-3.56,9.43-5.34,9.43s-1.79-6.29-3.57-6.29-1.78,9.43-3.56,9.43-1.78-12.57-3.56-12.57-1.78,4.71-3.57,4.71-1.78-7.86-8.9-7.86Z" fill="#078e69" fill-rule="evenodd"/><path d="M74.36,27.1c7.12,0,7.12-7.86,8.9-7.86s1.79,4.71,3.57,4.71,1.78-12.57,3.56-12.57,1.78,9.42,3.56,9.42,1.78-6.28,3.57-6.28,1.78,9.43,5.34,9.43c1.78,0,1.78-3.15,3.56-3.15,.42,0,.74,.35,1.06,.88,1.49,2.51,5.22,2.15,6.09-.63,.54-1.72,.94-3.15,1.58-3.15,1.65,0,1.65,4.59,3.3,4.59,3.3,0,3.3-13.79,4.95-13.79s1.65,9.2,3.3,9.2,1.65-13.79,3.3-13.79,1.65,18.38,3.3,18.38,1.65-6.89,3.3-6.89,1.65,11.49,8.26,11.49c-6.61,0-6.61,11.49-8.26,11.49s-1.65-6.89-3.3-6.89-1.65,18.38-3.3,18.38-1.65-13.79-3.3-13.79-1.65,9.19-3.3,9.19-1.65-13.78-4.95-13.78c-1.65,0-1.65,4.59-3.3,4.59-.65,0-1.04-1.42-1.58-3.15-.87-2.78-4.6-3.14-6.09-.64-.31,.53-.64,.88-1.06,.88-1.78,0-1.78-3.14-3.56-3.14-3.56,0-3.56,9.43-5.34,9.43s-1.79-6.29-3.57-6.29-1.78,9.43-3.56,9.43-1.78-12.57-3.56-12.57-1.78,4.71-3.57,4.71-1.78-7.86-8.9-7.86Z" fill="#078e69" fill-rule="evenodd"/><path d="M407.25,67.72c-6.84,0-6.84,7.55-8.55,7.55s-1.72-4.53-3.43-4.53-1.71,12.08-3.42,12.08-1.71-9.05-3.42-9.05-1.71,6.04-3.43,6.04-1.71-9.06-5.13-9.06c-1.71,0-1.71,3.02-3.42,3.02-.4,0-.71-.33-1.01-.84-1.43-2.41-5.01-2.07-5.85,.61-.52,1.66-.9,3.02-1.52,3.02-1.59,0-1.59-4.41-3.17-4.41-3.17,0-3.17,13.25-4.76,13.25s-1.59-8.83-3.17-8.83-1.59,13.25-3.17,13.25-1.59-17.66-3.17-17.66-1.59,6.62-3.17,6.62-1.59-11.04-7.93-11.04c6.35,0,6.35-11.04,7.93-11.04s1.58,6.62,3.17,6.62,1.59-17.66,3.17-17.66,1.59,13.25,3.17,13.25,1.59-8.83,3.17-8.83,1.59,13.24,4.76,13.24c1.58,0,1.58-4.41,3.17-4.41,.62,0,1,1.37,1.52,3.03,.84,2.67,4.42,3.02,5.85,.61,.3-.51,.61-.84,1.01-.84,1.71,0,1.71,3.02,3.42,3.02,3.42,0,3.42-9.06,5.13-9.06s1.72,6.04,3.43,6.04,1.71-9.06,3.42-9.06,1.71,12.08,3.42,12.08,1.71-4.53,3.43-4.53,1.71,7.55,8.55,7.55Z" fill="#6f57a4" fill-rule="evenodd"/><path d="M351.91,67.72c-6.84,0-6.84,7.55-8.55,7.55s-1.72-4.53-3.43-4.53-1.71,12.08-3.42,12.08-1.71-9.05-3.42-9.05-1.71,6.04-3.43,6.04-1.71-9.06-5.13-9.06c-1.71,0-1.71,3.02-3.42,3.02-.4,0-.71-.33-1.01-.84-1.43-2.41-5.01-2.07-5.85,.61-.52,1.66-.9,3.02-1.52,3.02-1.59,0-1.59-4.41-3.17-4.41-3.17,0-3.17,13.25-4.76,13.25s-1.59-8.83-3.17-8.83-1.59,13.25-3.17,13.25-1.59-17.66-3.17-17.66-1.59,6.62-3.17,6.62-1.59-11.04-7.93-11.04c6.35,0,6.35-11.04,7.93-11.04s1.58,6.62,3.17,6.62,1.59-17.66,3.17-17.66,1.59,13.25,3.17,13.25,1.59-8.83,3.17-8.83,1.59,13.24,4.76,13.24c1.58,0,1.58-4.41,3.17-4.41,.62,0,1,1.37,1.52,3.03,.84,2.67,4.42,3.02,5.85,.61,.3-.51,.61-.84,1.01-.84,1.71,0,1.71,3.02,3.42,3.02,3.42,0,3.42-9.06,5.13-9.06s1.72,6.04,3.43,6.04,1.71-9.06,3.42-9.06,1.71,12.08,3.42,12.08,1.71-4.53,3.43-4.53,1.71,7.55,8.55,7.55Z" fill="#6f57a4" fill-rule="evenodd"/></g></g></g></svg>
